icons/outline/brand-deezer.svg

<svg xmlns="http://www.w3.org/2000/svg" width="24" height="24" viewBox="0 0 24 24" fill="none" stroke="currentColor" stroke-width="2" stroke-linecap="round" stroke-linejoin="round"><path d="M3 16.5h2v.5h-2z"/><path d="M8 16.5h2.5v.5h-2.5z"/><path d="M16 17h-2.5v-.5h2.5z"/><path d="M21.5 17h-2.5v-.5h2.5z"/><path d="M21.5 13h-2.5v.5h2.5z"/><path d="M21.5 9.5h-2.5v.5h2.5z"/><path d="M21.5 6h-2.5v.5h2.5z"/><path d="M16 13h-2.5v.5h2.5z"/><path d="M8 13.5h2.5v-.5h-2.5z"/><path d="M8 9.5h2.5v.5h-2.5z"/></svg>

<svg xmlns="http://www.w3.org/2000/svg" width="24" height="24" fill="none" stroke="currentColor" stroke-linecap="round" stroke-linejoin="round" stroke-width="2"><path d="M3 16.5h2v.5H3zM8 16.5h2.5v.5H8zM16 17h-2.5v-.5H16zM21.5 17H19v-.5h2.5zM21.5 13H19v.5h2.5zM21.5 9.5H19v.5h2.5zM21.5 6H19v.5h2.5zM16 13h-2.5v.5H16zM8 13.5h2.5V13H8zM8 9.5h2.5v.5H8z"/></svg>
